dist/svg/u1FAC0.svg

<?xml version="1.0" encoding="UTF-8"?><svg id="Layer_1" xmlns="http://www.w3.org/2000/svg" viewBox="0 0 40 40"><g><path d="M31.17801,18.51498h2.21947c.5998,0,1.08603-.48623,1.08603-1.08603v-3.46152c0-.5998-.48623-1.08603-1.08603-1.08603h-4.48343l-.43311-.48214c-1.50037-1.67022-3.63977-2.62423-5.88492-2.62423h0l1.9474-1.9474c.5592-.5592,.57721-1.46013,.04081-2.04123l-1.16783-1.26515c-.56413-.61114-1.52197-.63453-2.11525-.05165l-1.9168,1.88317V3.4176c0-.32718-.26523-.59241-.59241-.59241h-3.78498c-.32718,0-.59241,.26523-.59241,.59241v2.30336s-2.13799,3.78745-2.13799,5.21238h0l-.86173,.47396c-2.78684,1.53276-4.73805,4.23599-5.3152,7.36373v.00002c-.45968,2.49116,.1285,5.06162,1.62579,7.10498h.00001c1.41673,1.93343,3.00102,3.73827,4.73452,5.39362l3.23276,3.08703c2.77424,2.64917,6.80201,3.51416,10.41931,2.23761h.00001c2.96341-1.04579,4.95411-3.83602,4.97879-6.97846l.08718-11.10084Z" style="fill:#ec4452;"/><path d="M9.802,3.44341v3.65059c-.00001,.43955,.26348,.8254,.6617,1.01148,.70681,.33027,1.73655,1.10478,1.81285,2.82785l1.43648-.75099c.44599-.23316,.72435-.69595,.7213-1.1992l-.01979-3.26218s-1.03834-2.53271-3.99535-2.86088c-.33357-.03702-.61719,.24771-.61719,.58334Z" style="fill:#0380ed;"/><path d="M24.4397,3.50483l1.1658,1.26295c.53589,.58055,.5185,1.48044-.03942,2.03985l-4.20788,4.21908c-.22645,.22705-.35979,.5306-.37381,.85097l.00064,1.61261c.00011,.26605-.21554,.48179-.4816,.48179h-3.44807c-.26598,0-.4816-.21562-.4816-.4816v-2.72786c0-1.03877,.41568-2.03435,1.15434-2.76471l4.59299-4.5414c.59274-.58608,1.55322-.56416,2.11861,.04834Z" style="fill:#b3202d;"/></g><rect width="40" height="40" style="fill:none;"/></svg>

<svg id="Layer_1" data-name="Layer 1" xmlns="http://www.w3.org/2000/svg" viewBox="0 0 40 40"><defs><style>.cls-1{fill:#ec4452;}.cls-2{fill:#0380ed;}.cls-3{fill:#b3202d;}.cls-4{fill:none;}</style></defs><path class="cls-1" d="M31.178,18.515H33.4a1.087,1.087,0,0,0,1.087-1.086V13.967A1.087,1.087,0,0,0,33.4,12.881H28.914l-.433-.482A7.911,7.911,0,0,0,22.6,9.775h0l1.947-1.947a1.473,1.473,0,0,0,.041-2.042L23.416,4.521A1.473,1.473,0,0,0,21.3,4.47L19.384,6.353V3.418a.592.592,0,0,0-.592-.593H15.007a.592.592,0,0,0-.592.593v2.3s-2.138,3.787-2.138,5.212h0l-.862.474A10.6,10.6,0,0,0,6.1,18.771h0a9.2,9.2,0,0,0,1.625,7.105h0A40.87,40.87,0,0,0,12.46,31.27l3.233,3.087a10.18,10.18,0,0,0,10.419,2.237h0a7.464,7.464,0,0,0,4.979-6.978Z"/><path class="cls-2" d="M9.8,3.443V7.094a1.118,1.118,0,0,0,.662,1.011,3.09,3.09,0,0,1,1.813,2.828l1.436-.751a1.344,1.344,0,0,0,.721-1.2l-.019-3.262a5.034,5.034,0,0,0-4-2.861A.575.575,0,0,0,9.8,3.443Z"/><path class="cls-3" d="M24.44,3.505l1.165,1.263a1.473,1.473,0,0,1-.039,2.04l-4.208,4.219a1.285,1.285,0,0,0-.374.851V13.49a.482.482,0,0,1-.482.482H17.055a.481.481,0,0,1-.481-.482V10.763A3.886,3.886,0,0,1,17.728,8l4.593-4.542A1.474,1.474,0,0,1,24.44,3.505Z"/><rect class="cls-4" width="40" height="40"/></svg>
